src/assets/duotone/Musicnote.svg

<svg width="24" height="24" viewBox="0 0 24 24"  xmlns="http://www.w3.org/2000/svg">
<path opacity="0.4" d="M19.26 2.86995L14.84 1.39995C13.92 1.08995 12.99 1.19995 12.31 1.69995C11.62 2.19995 11.23 3.03995 11.23 4.00995V7.77995L18.11 10.07C18.45 10.19 18.8 10.24 19.13 10.24C19.69 10.24 20.21 10.08 20.64 9.76995C21.33 9.26995 21.72 8.42995 21.72 7.45995V6.27995C21.72 4.84995 20.62 3.31995 19.26 2.86995Z" />
<path d="M12.7202 8.27002V18C12.7202 20.62 10.5902 22.75 7.97021 22.75C5.35021 22.75 3.22021 20.62 3.22021 18C3.22021 15.38 5.35021 13.25 7.97021 13.25C9.23022 13.25 10.3702 13.75 11.2202 14.55V7.77002L12.7202 8.27002Z" />
</svg>

<?xml version="1.0" encoding="UTF-8"?>
<svg width="24" height="24" viewBox="0 0 24 24" xmlns="http://www.w3.org/2000/svg">
 <path d="m19.26 2.87-4.42-1.47c-0.92-0.31-1.85-0.2-2.53 0.3-0.69 0.5-1.08 1.34-1.08 2.31v3.77l6.88 2.29c0.34 0.12 0.69 0.17 1.02 0.17 0.56 0 1.08-0.16 1.51-0.47005 0.69-0.5 1.08-1.34 1.08-2.31v-1.18c0-1.43-1.1-2.96-2.46-3.41z" opacity=".4"/>
 <path d="m12.72 8.27v9.73c0 2.62-2.13 4.75-4.75 4.75-2.62 0-4.75-2.13-4.75-4.75s2.13-4.75 4.75-4.75c1.26 0 2.4 0.5 3.25 1.3v-6.78l1.5 0.5z"/>
</svg>
